packages/crayons-core/src/components/icon/icon-assets/icons/list-numbers.svg

<?xml version="1.0" encoding="UTF-8"?>
<svg width="15px" height="12px" viewBox="0 0 15 12" version="1.1" xmlns="http://www.w3.org/2000/svg" xmlns:xlink="http://www.w3.org/1999/xlink">
    <!-- Generator: Sketch 52.6 (67491) - http://www.bohemiancoding.com/sketch -->
    <title>icon/list-numbers</title>
    <desc>Created with Sketch.</desc>
    <g id="Icons-✅" stroke="none" stroke-width="1" fill="none" fill-rule="evenodd">
        <g id="Icons" transform="translate(-327.000000, -1730.000000)" fill="currentColor">
            <g id="icon/list-numbers" transform="translate(327.000000, 1730.000000)">
                <g id="list-numbers">
                    <path d="M0.6,2.76 L0.6,1 L0.35,1.18 L0.02,0.59 L0.78,0.08 L1.21,0.06 L1.31,0.06 L1.31,2.76 L0.6,2.76 Z M0.17,7.39 L0.17,6.89 L0.88,6.08 C1.1,5.83 1.17,5.72 1.17,5.51 C1.17,5.3 1.07,5.34 1.03,5.34 C0.99,5.34 0.88,5.34 0.87,5.59 L0.87,5.69 L0.17,5.69 L0.17,5.56 C0.146207866,5.32985613 0.224502154,5.10085041 0.384212038,4.93344367 C0.543921921,4.76603692 0.768991812,4.6770585 1,4.69 C1.22540278,4.65964232 1.45255433,4.7318287 1.61908134,4.88673755 C1.78560836,5.04164641 1.87400554,5.26299373 1.86,5.49 C1.84706384,5.87367418 1.67714487,6.23520392 1.39,6.49 L1.14,6.75 L1.87,6.75 L1.87,7.4 L0.17,7.39 Z M1,12 C0.764736023,12.0265285 0.529642263,11.9487979 0.356561318,11.7872557 C0.183480374,11.6257135 0.0897403378,11.3965325 0.1,11.16 L0.8,11.16 C0.8,11.36 0.92,11.39 1,11.39 C1.08,11.39 1.19,11.39 1.19,11.16 C1.19,10.93 1.19,10.96 0.97,10.96 L0.57,10.96 L0.57,10.33 L0.92,10.33 C0.968584174,10.3329528 1.01610368,10.3149389 1.05052127,10.2805213 C1.08493886,10.2461037 1.10295282,10.1985842 1.1,10.15 C1.1,10 1,10 1,10 C1,10 0.84,10 0.83,10.21 L0.14,10.21 C0.111045917,9.9733601 0.191903706,9.73647267 0.359504021,9.56692352 C0.527104336,9.39737436 0.763041193,9.31378348 1,9.34 C1.22483365,9.31613491 1.44879431,9.39229151 1.6124737,9.54826834 C1.77615309,9.70424517 1.86300832,9.92427783 1.85,10.15 C1.85723161,10.3325933 1.78843633,10.5100127 1.66,10.64 C1.81693017,10.7749022 1.90502577,10.9731173 1.9,11.18 C1.8980399,11.4110704 1.79983912,11.6308633 1.62902656,11.7864926 C1.45821399,11.9421218 1.23025477,12.0194969 1,12 Z M13.8,6.7 L3.47,6.7 C3.08340068,6.7 2.77,6.38659932 2.77,6 C2.77,5.61340068 3.08340068,5.3 3.47,5.3 L13.8,5.3 C14.1865993,5.3 14.5,5.61340068 14.5,6 C14.5,6.38659932 14.1865993,6.7 13.8,6.7 Z M13.8,2.1 L3.47,2.1 C3.08340068,2.1 2.77,1.78659932 2.77,1.4 C2.77,1.01340068 3.08340068,0.7 3.47,0.7 L13.8,0.7 C14.1865993,0.7 14.5,1.01340068 14.5,1.4 C14.5,1.78659932 14.1865993,2.1 13.8,2.1 Z M13.8,11.3 L3.47,11.3 C3.08340068,11.3 2.77,10.9865993 2.77,10.6 C2.77,10.2134007 3.08340068,9.9 3.47,9.9 L13.8,9.9 C14.1865993,9.9 14.5,10.2134007 14.5,10.6 C14.5,10.9865993 14.1865993,11.3 13.8,11.3 Z" id="Combined-Shape"></path>
                </g>
            </g>
        </g>
    </g>
</svg>

<svg viewBox="0 0 15 12"><path d="M.6 2.76V1l-.25.18L.02.59.78.08l.43-.02h.1v2.7H.6zM.17 7.39v-.5l.71-.81c.22-.25.29-.36.29-.57 0-.21-.1-.17-.14-.17-.04 0-.15 0-.16.25v.1h-.7v-.13A.79.79 0 0 1 1 4.69a.76.76 0 0 1 .86.8 1.4 1.4 0 0 1-.47 1l-.25.26h.73v.65l-1.7-.01zM1 12a.81.81 0 0 1-.9-.84h.7c0 .2.12.23.2.23.08 0 .19 0 .19-.23s0-.2-.22-.2h-.4v-.63h.35a.17.17 0 0 0 .18-.18C1.1 10 1 10 1 10s-.16 0-.17.21H.14A.78.78 0 0 1 1 9.34a.77.77 0 0 1 .85.81.66.66 0 0 1-.19.49.69.69 0 0 1 .24.54.83.83 0 0 1-.9.82zm12.8-5.3H3.47a.7.7 0 0 1 0-1.4H13.8a.7.7 0 0 1 0 1.4zm0-4.6H3.47a.7.7 0 0 1 0-1.4H13.8a.7.7 0 0 1 0 1.4zm0 9.2H3.47a.7.7 0 0 1 0-1.4H13.8a.7.7 0 0 1 0 1.4z" fill="currentColor" fill-rule="evenodd"/></svg>
